src/asset/img/icon/item_category/pet.svg

<svg xmlns:xlink="http://www.w3.org/1999/xlink" height="22.95" width="17.9" xmlns="http://www.w3.org/2000/svg"><use height="88.6" transform="matrix(.259 0 0 .2591 -.014 -.004)" width="69.1" xlink:href="#a"/><defs><use height="88.6" width="69.1" xlink:href="#b" id="a"/><g id="b" fill-rule="evenodd"><path d="M38.15 76q-.65.4-2.5-.45l2.5.45" fill="#7590ab" transform="translate(12.6 .4)"/><path d="M38.65 69.9h.25l-.4 6.05-.35.05-2.5-.45q-1.45-.45-3.2-1.4-3.15-1.7-3.85-3.45l-.2-.8h10.25" fill="#5a7590" transform="translate(12.6 .4)"/><path d="m41.75 21.4 2-8.25q1-4.85-.4-8.7L39.1 8.3q-2.8 2.4-4.05 4.45l-10.3-.4-4.6.75-4.65-.75-10.3.4L1.15 8.3-3.1 4.45q-1.4 3.85-.4 8.7l2 8.25q.45 2.85.45 7l.35.3 3.45 1.4q1.8 1.4 1.8 2.85 0 1.6-2 2-1.3.2-3.35-1l.4 1.6 2.15.4L7.6 39.2q-1.3 1.05-5.3.9l.25.3q3.65 4.25 9.9 5.65l7.65.5q3.65.55 7.7-.5 6.25-1.4 9.9-5.65l.4-.4q-1.5-.25-2.2-.8l4.25-2.35.7-1.9q-1.95-.45-1.95-2 0-1.45 2.05-2.85l.35-.15q-.05-5.2.45-8.55m3.25 12-.4 2.2 5-.85q5.45-.6 6.7 1.6-2.05 2.25-10.1 3.25l-3.3.4-.35.65q2.9 2.95 5.45 6.8 5.65 8.7 7.05 17.6l1.45 8.5q.2 4.6-3.45 7.25-2.85 2-8.5 1.8-5.85-.4-7.05-3.2-2.25-1.45-5.65-2.05Q30.65 79.4 29 83q-1.6 3.05-4.85 4.25-3.4 1.65-7.85.4-5.05-1.2-5.05-4.65l-5.65.45q-4.05.2-5.25-1.05-2.25-2.2 0-8.25 2.8-7.5 2.8-9.3 0-3.65-1.2-10.9Q.85 48.1.6 44.35q-2.35-2.15-3.8-4.8-7.65-1-9.4-3.2 1.2-2.2 6.45-1.6l1.25.1-.45-2.95-.1-1.5-3.7-2.5q-2.85-2.25-2.45-4.45l6 2.2q-.25-9 .05-25.45l2.45-.6q2.4 1 4.85 4.25Q4.35 7.5 6 8.5q3.2 1.8 6.65.6 4.25-1.6 6.45-1.2l.8.2.85-.2q2.2-.4 6.65 1.2 3.45 1.2 6.45-.6 1.6-1 4.25-4.65Q40.5.6 43.15-.4l2.2.6q.7 17.3.15 27.5 3.2-2.15 9.55-4.25.6 2.2-2.2 4.45-3.65 2.2-5.05 3.2L45 33.4M24 30q.05-1.05.35-1.9 1.45-4.05 3.85-4.05 2.45 0 2.45 4.25 0 3-2.25 6.05h-4.05L24 30m-7.05 4.35h-3.3q-2.2-3.05-2.2-6.05l.2-2.15q.5-2.3 2.2-2.3 1.05 0 1.9.75 1 .9 1.75 2.95l.2.55q.8 2.4 0 6.25h-.75m22.7 9.85-.55.45q-4.65 4.25-13.75 6.45l-1.8.4-3.65.4-3.6-.4-1.85-.4q-5.3-1.4-9.2-3.5l.05.35q-.05 3.15.9 8.8 1.2 6.9.2 10.7-.8 3.05-2.85 8.1Q2.95 79 9.6 78.6q.85-1.25 1.85-5.7.8-3.6 2-4.4.4 1 .6 9.45 0 4.65 5.05 5.25 6.7.65 6.5-4.2-1.45-6.7-.85-9.9.6-2.65 1.05-3.45.45-.7 1.2.25-1.4 1.9 1.6 4.8.7 1.75 3.85 3.45 1.75.95 3.2 1.4 1.85.85 2.5.45l.35-.05.4-6.05h-.25q.05-1.85.25-3.05l-.15-.05q1.15-1.45 3.2 2.9 1.4 2.8 1.6 6.85.8 2.45 6.65 1.2 1.65-8.65-.8-17.75-2.8-9.3-8.9-15.55l-.55-.55-.3.3" fill="#3f5a75" fill-opacity=".902" transform="translate(12.6 .4)"/><path d="M36 24.95q-.25-4.9-5.6-5.75-5.25-.8-6.25 4.65v.1q-.15-9.3 8.1-6.55 6.5 2.05 3.75 7.55M15.8 20.5q-1.6-1.7-4.75-1.1-6.3.95-5.7 7.35Q.25 19.8 8 17.4q6.5-2.2 7.8 3.1M5.3 47.95l-.05-.35q3.9 2.1 9.2 3.5l1.85.4 3.6.4 3.65-.4 1.8-.4q9.1-2.2 13.75-6.45l.55-.45.25 1.85Q40.1 58 23.15 58.8q-16.3.8-17.85-10.85M38.75 66.8l.15.05q-.2 1.2-.25 3.05H28.4l.2.8q-3-2.9-1.6-4.8l.6-.65q.6-.6 2.4-.6 1.65 0 8.75 2.15M20.1 40q-2.8 0-5.05-2-2.2-2.05 4.65-2.05 7.1 0 5.05 2.05-1.8 2-4.65 2m-4 37.15.2-1.8q1.6-1.2 4.45-.8 2.8.6 2.2 2.8l-6.85-.2M6.2 71.5q2.6-.4 2.6 2.05-1.8.2-4.05-.85l1.45-1.2" fill="#3f5a75" fill-opacity=".6" transform="translate(12.6 .4)"/><path d="M41.75 21.4q-.5 3.35-.45 8.55l-.35.15q-2.05 1.4-2.05 2.85 0 1.55 1.95 2l-.7 1.9-4.25 2.35q.7.55 2.2.8l-.4.4q-3.65 4.25-9.9 5.65-4.05 1.05-7.7.5l-7.65-.5q-6.25-1.4-9.9-5.65l-.25-.3q4 .15 5.3-.9l-5.85-3.25-2.15-.4-.4-1.6q2.05 1.2 3.35 1 2-.4 2-2 0-1.45-1.8-2.85L-.7 28.7l-.35-.3q0-4.15-.45-7l-2-8.25q-1-4.85.4-8.7L1.15 8.3l4.05 4.45 10.3-.4 4.65.75 4.6-.75 10.3.4Q36.3 10.7 39.1 8.3l4.25-3.85q1.4 3.85.4 8.7l-2 8.25M36 24.95q2.75-5.5-3.75-7.55-8.25-2.75-8.1 6.55-.4 1.9-.15 6.05l.35 4.35q6.5.4 9.7-1 2.1-5.1 1.95-8.4m-18.5 2.6q.1-2.4-.2-3.7-.4-2.2-1.5-3.35-1.3-5.3-7.8-3.1-7.75 2.4-2.65 9.35.25 2.85 1.85 6.8 2.6 1 9.7 1l.05-.2h.75q.8-3.85 0-6.25l-.2-.55M5.3 47.95Q6.85 59.6 23.15 58.8 40.1 58 39.9 46.05l-.25-1.85.3-.3.55.55Q46.6 50.7 49.4 60q2.45 9.1.8 17.75-5.85 1.25-6.65-1.2-.2-4.05-1.6-6.85-2.05-4.35-3.2-2.9-7.1-2.15-8.75-2.15-1.8 0-2.4.6l-.6.65q-.75-.95-1.2-.25-.45.8-1.05 3.45-.6 3.2.85 9.9.2 4.85-6.5 4.2-5.05-.6-5.05-5.25-.2-8.45-.6-9.45-1.2.8-2 4.4-1 4.45-1.85 5.7-6.65.4-6.05-3.05 2.05-5.05 2.85-8.1 1-3.8-.2-10.7-.95-5.65-.9-8.8M20.1 40q2.85 0 4.65-2 2.05-2.05-5.05-2.05-6.85 0-4.65 2.05 2.25 2 5.05 2M6.2 71.5l-1.45 1.2q2.25 1.05 4.05.85 0-2.45-2.6-2.05m9.9 5.65 6.85.2q.6-2.2-2.2-2.8-2.85-.4-4.45.8l-.2 1.8" fill="#3f5a75" fill-opacity=".2" transform="translate(12.6 .4)"/></g></defs></svg>

<?xml version="1.0" encoding="UTF-8" standalone="no"?>
<svg xmlns:xlink="http://www.w3.org/1999/xlink" height="22.95px" width="17.9px" xmlns="http://www.w3.org/2000/svg">
  <g transform="matrix(1.0, 0.0, 0.0, 1.0, -3.55, -1.15)">
    <use height="88.6" transform="matrix(0.259, 0.0, 0.0, 0.2591, 3.536, 1.1464)" width="69.1" xlink:href="#sprite0"/>
  </g>
  <defs>
    <g id="sprite0" transform="matrix(1.0, 0.0, 0.0, 1.0, 12.6, 0.4)">
      <use height="88.6" transform="matrix(1.0, 0.0, 0.0, 1.0, -12.6, -0.4)" width="69.1" xlink:href="#shape0"/>
    </g>
    <g id="shape0" transform="matrix(1.0, 0.0, 0.0, 1.0, 12.6, 0.4)">
      <path d="M38.15 76.0 Q37.5 76.4 35.65 75.55 L38.15 76.0" fill="#7590ab" fill-rule="evenodd" stroke="none"/>
      <path d="M38.65 69.9 L38.9 69.9 38.5 75.95 38.15 76.0 35.65 75.55 Q34.2 75.1 32.45 74.15 29.3 72.45 28.6 70.7 L28.4 69.9 38.65 69.9" fill="#5a7590" fill-rule="evenodd" stroke="none"/>
      <path d="M41.75 21.4 L43.75 13.15 Q44.75 8.3 43.35 4.45 L39.1 8.3 Q36.3 10.7 35.05 12.75 L24.75 12.35 20.15 13.1 15.5 12.35 5.2 12.75 1.15 8.3 -3.1 4.45 Q-4.5 8.3 -3.5 13.15 L-1.5 21.4 Q-1.05 24.25 -1.05 28.4 L-0.7 28.7 2.75 30.1 Q4.55 31.5 4.55 32.95 4.55 34.55 2.55 34.95 1.25 35.15 -0.8 33.95 L-0.4 35.55 1.75 35.95 7.6 39.2 Q6.3 40.25 2.3 40.1 L2.55 40.4 Q6.2 44.65 12.45 46.05 L20.1 46.55 Q23.75 47.1 27.8 46.05 34.05 44.65 37.7 40.4 L38.1 40.0 Q36.6 39.75 35.9 39.2 L40.15 36.85 40.85 34.95 Q38.9 34.5 38.9 32.95 38.9 31.5 40.95 30.1 L41.3 29.95 Q41.25 24.75 41.75 21.4 M45.0 33.4 L44.6 35.6 49.6 34.75 Q55.05 34.15 56.3 36.35 54.25 38.6 46.2 39.6 L42.9 40.0 42.55 40.65 Q45.45 43.6 48.0 47.45 53.65 56.15 55.05 65.05 L56.5 73.55 Q56.7 78.15 53.05 80.8 50.2 82.8 44.55 82.6 38.7 82.2 37.5 79.4 35.25 77.95 31.85 77.35 30.65 79.4 29.0 83.0 27.4 86.05 24.15 87.25 20.75 88.9 16.3 87.65 11.25 86.45 11.25 83.0 L5.6 83.45 Q1.55 83.65 0.35 82.4 -1.9 80.2 0.35 74.15 3.15 66.65 3.15 64.85 3.15 61.2 1.95 53.95 0.85 48.1 0.6 44.35 -1.75 42.2 -3.2 39.55 -10.85 38.55 -12.6 36.35 -11.4 34.15 -6.15 34.75 L-4.9 34.85 -5.35 31.9 -5.45 30.4 -9.15 27.9 Q-12.0 25.65 -11.6 23.45 L-5.6 25.65 Q-5.85 16.65 -5.55 0.2 L-3.1 -0.4 Q-0.7 0.6 1.75 3.85 4.35 7.5 6.0 8.5 9.2 10.3 12.65 9.1 16.9 7.5 19.1 7.9 L19.9 8.1 20.75 7.9 Q22.95 7.5 27.4 9.1 30.85 10.3 33.85 8.5 35.45 7.5 38.1 3.85 40.5 0.6 43.15 -0.4 L45.35 0.2 Q46.05 17.5 45.5 27.7 48.7 25.55 55.05 23.45 55.65 25.65 52.85 27.9 49.2 30.1 47.8 31.1 L45.0 33.4 M24.0 30.0 Q24.05 28.95 24.35 28.1 25.8 24.05 28.2 24.05 30.65 24.05 30.65 28.3 30.65 31.3 28.4 34.35 L24.35 34.35 24.0 30.0 M16.95 34.35 L13.65 34.35 Q11.45 31.3 11.45 28.3 L11.65 26.15 Q12.15 23.85 13.85 23.85 14.9 23.85 15.75 24.6 16.75 25.5 17.5 27.55 L17.7 28.1 Q18.5 30.5 17.7 34.35 L16.95 34.35 M39.65 44.2 L39.1 44.65 Q34.45 48.9 25.35 51.1 L23.55 51.5 19.9 51.9 16.3 51.5 14.45 51.1 Q9.15 49.7 5.25 47.6 L5.3 47.95 Q5.25 51.1 6.2 56.75 7.4 63.65 6.4 67.45 5.6 70.5 3.55 75.55 2.95 79.0 9.6 78.6 10.45 77.35 11.45 72.9 12.25 69.3 13.45 68.5 13.85 69.5 14.05 77.95 14.05 82.6 19.1 83.2 25.8 83.85 25.6 79.0 24.15 72.3 24.75 69.1 25.35 66.45 25.8 65.65 26.25 64.95 27.0 65.9 25.6 67.8 28.6 70.7 29.3 72.45 32.45 74.15 34.2 75.1 35.65 75.55 37.5 76.4 38.15 76.0 L38.5 75.95 38.9 69.9 38.65 69.9 Q38.7 68.05 38.9 66.85 L38.75 66.8 Q39.9 65.35 41.95 69.7 43.35 72.5 43.55 76.55 44.35 79.0 50.2 77.75 51.85 69.1 49.4 60.0 46.6 50.7 40.5 44.45 L39.95 43.9 39.65 44.2" fill="#3f5a75" fill-opacity="0.9019608" fill-rule="evenodd" stroke="none"/>
      <path d="M36.0 24.95 Q35.75 20.05 30.4 19.2 25.15 18.4 24.15 23.85 L24.15 23.95 Q24.0 14.65 32.25 17.4 38.75 19.45 36.0 24.95 M15.8 20.5 Q14.2 18.8 11.05 19.4 4.75 20.35 5.35 26.75 0.25 19.8 8.0 17.4 14.5 15.2 15.8 20.5 M5.3 47.95 L5.25 47.6 Q9.15 49.7 14.45 51.1 L16.3 51.5 19.9 51.9 23.55 51.5 25.35 51.1 Q34.45 48.9 39.1 44.65 L39.65 44.2 39.9 46.05 Q40.1 58.0 23.15 58.8 6.85 59.6 5.3 47.95 M38.75 66.8 L38.9 66.85 Q38.7 68.05 38.65 69.9 L28.4 69.9 28.6 70.7 Q25.6 67.8 27.0 65.9 L27.6 65.25 Q28.2 64.65 30.0 64.65 31.65 64.65 38.75 66.8 M20.1 40.0 Q17.3 40.0 15.05 38.0 12.85 35.95 19.7 35.95 26.8 35.95 24.75 38.0 22.95 40.0 20.1 40.0 M16.1 77.15 L16.3 75.35 Q17.9 74.15 20.75 74.55 23.55 75.15 22.95 77.35 L16.1 77.15 M6.2 71.5 Q8.8 71.1 8.8 73.55 7.0 73.75 4.75 72.7 L6.2 71.5" fill="#3f5a75" fill-opacity="0.6" fill-rule="evenodd" stroke="none"/>
      <path d="M41.75 21.4 Q41.25 24.75 41.3 29.95 L40.95 30.1 Q38.9 31.5 38.9 32.95 38.9 34.5 40.85 34.95 L40.15 36.85 35.9 39.2 Q36.6 39.75 38.1 40.0 L37.7 40.4 Q34.05 44.65 27.8 46.05 23.75 47.1 20.1 46.55 L12.45 46.05 Q6.2 44.65 2.55 40.4 L2.3 40.1 Q6.3 40.25 7.6 39.2 L1.75 35.95 -0.4 35.55 -0.8 33.95 Q1.25 35.15 2.55 34.95 4.55 34.55 4.55 32.95 4.55 31.5 2.75 30.1 L-0.7 28.7 -1.05 28.4 Q-1.05 24.25 -1.5 21.4 L-3.5 13.15 Q-4.5 8.3 -3.1 4.45 L1.15 8.3 5.2 12.75 15.5 12.35 20.15 13.1 24.75 12.35 35.05 12.75 Q36.3 10.7 39.1 8.3 L43.35 4.45 Q44.75 8.3 43.75 13.15 L41.75 21.4 M36.0 24.95 Q38.75 19.45 32.25 17.4 24.0 14.65 24.15 23.95 23.75 25.85 24.0 30.0 L24.35 34.35 Q30.85 34.75 34.05 33.35 36.15 28.25 36.0 24.95 M17.5 27.55 Q17.6 25.15 17.3 23.85 16.9 21.65 15.8 20.5 14.5 15.2 8.0 17.4 0.25 19.8 5.35 26.75 5.6 29.6 7.2 33.55 9.8 34.55 16.9 34.55 L16.95 34.35 17.7 34.35 Q18.5 30.5 17.7 28.1 L17.5 27.55 M5.3 47.95 Q6.85 59.6 23.15 58.8 40.1 58.0 39.9 46.05 L39.65 44.2 39.95 43.9 40.5 44.45 Q46.6 50.7 49.4 60.0 51.85 69.1 50.2 77.75 44.35 79.0 43.55 76.55 43.35 72.5 41.95 69.7 39.9 65.35 38.75 66.8 31.65 64.65 30.0 64.65 28.2 64.65 27.6 65.25 L27.0 65.9 Q26.25 64.95 25.8 65.65 25.35 66.45 24.75 69.1 24.15 72.3 25.6 79.0 25.8 83.85 19.1 83.2 14.05 82.6 14.05 77.95 13.85 69.5 13.45 68.5 12.25 69.3 11.45 72.9 10.45 77.35 9.6 78.6 2.95 79.0 3.55 75.55 5.6 70.5 6.4 67.45 7.4 63.65 6.2 56.75 5.25 51.1 5.3 47.95 M20.1 40.0 Q22.95 40.0 24.75 38.0 26.8 35.95 19.7 35.95 12.85 35.95 15.05 38.0 17.3 40.0 20.1 40.0 M6.2 71.5 L4.75 72.7 Q7.0 73.75 8.8 73.55 8.8 71.1 6.2 71.5 M16.1 77.15 L22.95 77.35 Q23.55 75.15 20.75 74.55 17.9 74.15 16.3 75.35 L16.1 77.15" fill="#3f5a75" fill-opacity="0.2" fill-rule="evenodd" stroke="none"/>
    </g>
  </defs>
</svg>
